src/assets/icons/success-check.svg

<svg width="16" height="16" viewBox="0 0 16 16" fill="none" xmlns="http://www.w3.org/2000/svg">
<path d="M6.15063 10.8208L3.42101 7.95474C3.00445 7.51736 2.32907 7.51736 1.91252 7.95474C1.49596 8.39213 1.49596 9.10127 1.91252 9.53866L5.46806 13.272C5.91158 13.7377 6.6402 13.703 7.04174 13.197L14.1528 4.23705C14.53 3.76186 14.4688 3.05563 14.0163 2.65964C13.5637 2.26365 12.8911 2.32786 12.514 2.80304L6.15063 10.8208Z" fill="white"/>
</svg>

<?xml version="1.0" encoding="iso-8859-1"?>
<!-- Generator: Adobe Illustrator 25.0.0, SVG Export Plug-In . SVG Version: 6.00 Build 0)  -->
<svg version="1.1" id="Layer_1" xmlns="http://www.w3.org/2000/svg" xmlns:xlink="http://www.w3.org/1999/xlink" x="0px" y="0px"
	 viewBox="0 0 16 16" style="enable-background:new 0 0 16 16;" xml:space="preserve">
<path style="fill:#FFFFFF;" d="M6.151,10.821l-2.73-2.866c-0.417-0.437-1.092-0.437-1.508,0c-0.417,0.437-0.417,1.147,0,1.584
	l3.556,3.733c0.444,0.466,1.172,0.431,1.574-0.075l7.111-8.96c0.377-0.475,0.316-1.181-0.136-1.577
	c-0.453-0.396-1.125-0.332-1.502,0.143L6.151,10.821z"/>
</svg>
